X:1
T:Title
%%score ( 1 2 ) { ( 3 5 ) | 4 }
L:1/8
Q:1/4=115
M:4/4
K:Eb
V:1 treble nm="Grand Piano, Soprano"
V:2 treble 
V:3 bass nm="Choir Pad, Sumus Tibi, H. Elliott Button"
V:5 bass 
V:4 bass 
V:1
 [EB]2 [EG]2 [B,F]2 [B,E]2 | [B,E]4 [B,D]4 | [Dc]2 [DA]2 [DG]2 [DF]2 | [EB]8 | %4
w: By~Henry~Elliott~Button,~1891 * * *||||
 [EB]2 [Ge]2 [Ge]2 [Gd]2 | G2 [Gc]2 [Gc]2 [GB]2 | [FA]4 [EG]4 | F4- [DF]4 | %8
w: ||||
 [_DB]2 [DG]2 [DF]2 [DE]2 | C2- [CA]2 B2 c2 | [Ec]2 [E=A]2 [EG]2 [EF]2 | d4- [Fd]4 | %12
w: ||||
 [Fd]2 [F=B]2 [F=A]2 [FG]2 | [EG]2 [Gc]2 [Gd]2 [Ge]2 | [=Ad]4 [Ac]4 | F2 z2 z4 | %16
w: ||||
 [EGB]2 [EG]2 [B,F]2 [B,E]2 | [B,E]4 [B,D]4 | [Dc]2 [DA]2 [DG]2 [DF]2 | B2- [AB-]2 [GB-]2 [FB]2 | %20
w: ||||
 [Ee]2 [Ed]2 [Ec]2 [C=EB]2 | [CFA]2 [FB]2 [EA]2 [EG]2 | [EF]4 [DF]4 | E8 |] %24
w: ||||
V:2
 x8 | x8 | x8 | x8 | x8 | x8 | x8 | E4 z4 | x8 | E2 z2 E4 | x8 | D4 z4 | x8 | x8 | x8 | %15
 B2- [DB-]2 [CEB-]2 [DFB]2 | x8 | x8 | x8 | E2 z2 z4 | x8 | x8 | x8 | x8 |] %24
V:3
 G,2 B,2 A,2 G,2 | A,4 A,4 | A,2 C2 B,2 B,2 | B,8 | B,2 B,2 =B,2 B,2 | C2 C2 _D2 D2 | C4 C4 | %7
 F,4 A,4 | G,2 B,2 A,2 B,2 | C4 B,4 | =A,2[K:treble] C2 B,2 C2 | B,4 C4 | =B,2 D2 C2 D2 | %13
 C2 E2 F2 E2 | E4 E4 | D2[K:bass] A,2 z2 A,2 | G,2 B,2 A,2 G,2 | A,4 A,4 | A,2 C2 B,2 B,2 | B,8 | %20
 G,2 G,2 A,2 G,2 | F,2 B,2 B,2 B,2 | B,4 z2 A,2 | G,8 |] %24
V:4
 E,2 E,2 E,2 E,2 | F,4 F,4 | B,,2 B,,2 z2 A,2 | G,8 | G,2 G,2 F,2 F,2 | E,2 E,2 =E,2 E,2 | %6
 F,4 A,,4 | B,,8 | E,2 E,2 F,2 G,2 | A,4 _G,4 | F,2 F,2 G,2 =A,2 | z4 A,4 | G,2 G,2 =A,2 =B,2 | %13
 z2 C2 C,2 C,2 | F,4 F,4 | B,2 z2 G,2 F,2 | E,2 E,2 E,2 E,2 | F,4 F,4 | B,,2 B,,2 z2 A,2 | %19
 G,2 F,2 E,2 D,2 | C,2 C,2 A,,2 C,2 | z2 D,2 E,2 G,2 | z8 | E,8 |] %24
V:5
 x8 | x8 | x8 | x8 | x8 | x8 | x8 | x8 | x8 | x8 | x2[K:treble] x6 | x8 | x8 | x8 | x8 | %15
 z4[K:bass] B,4 | x8 | x8 | x8 | x8 | x8 | x8 | z4 B,,4 | x8 |] %24

